img/kopf-notizen.svg

<?xml version="1.0" encoding="UTF-8" standalone="no"?>
<svg
   xmlns:dc="http://purl.org/dc/elements/1.1/"
   xmlns:cc="http://creativecommons.org/ns#"
   xmlns:rdf="http://www.w3.org/1999/02/22-rdf-syntax-ns#"
   xmlns:svg="http://www.w3.org/2000/svg"
   xmlns="http://www.w3.org/2000/svg"
   xmlns:sodipodi="http://sodipodi.sourceforge.net/DTD/sodipodi-0.dtd"
   xmlns:inkscape="http://www.inkscape.org/namespaces/inkscape"
   width="24"
   height="24"
   viewBox="0 0 24 24"
   version="1.1"
   id="svg7"
   sodipodi:docname="heading-notizen.svg"
   inkscape:version="0.92.3 (2405546, 2018-03-11)">
  <metadata
     id="metadata11">
    <rdf:RDF>
      <cc:Work
         rdf:about="">
        <dc:format>image/svg+xml</dc:format>
        <dc:type
           rdf:resource="http://purl.org/dc/dcmitype/StillImage" />
        <dc:title></dc:title>
      </cc:Work>
    </rdf:RDF>
  </metadata>
  <sodipodi:namedview
     pagecolor="#e9e9e9"
     bordercolor="#666666"
     borderopacity="1"
     objecttolerance="10"
     gridtolerance="10"
     guidetolerance="10"
     inkscape:pageopacity="0"
     inkscape:pageshadow="2"
     inkscape:window-width="1600"
     inkscape:window-height="849"
     id="namedview9"
     showgrid="true"
     inkscape:zoom="27.166667"
     inkscape:cx="12"
     inkscape:cy="12"
     inkscape:window-x="0"
     inkscape:window-y="24"
     inkscape:window-maximized="1"
     inkscape:current-layer="svg7">
    <inkscape:grid
       type="xygrid"
       id="grid818" />
  </sodipodi:namedview>
  <defs
     id="defs3">
    <style
       id="current-color-scheme"
       type="text/css">
   .ColorScheme-Text { color:#444444; } .ColorScheme-Highlight { color:#5294e2; }
  </style>
  </defs>
  <path
     style="fill:#ffffff;fill-opacity:1"
     class="ColorScheme-Text"
     d="M 12.210938 1 C 11.998438 1 11.784141 1.0830469 11.619141 1.2480469 L 9.9902344 2.8886719 L 13.109375 6.0078125 L 14.75 4.3789062 C 15.08 4.0489063 15.08 3.5272656 14.75 3.1972656 L 12.800781 1.2480469 C 12.635781 1.0830469 12.423437 1 12.210938 1 z M 8.8691406 4.0078125 L 0.99023438 11.888672 L 0.99023438 15.007812 L 4.109375 15.007812 L 11.990234 7.1289062 L 8.8691406 4.0078125 z"
     transform="translate(4 4)"
     id="path5" />
</svg>

<?xml version="1.0" encoding="UTF-8"?>
<svg width="24" height="24" version="1.1" viewBox="0 0 24 24" xmlns="http://www.w3.org/2000/svg">
<metadata>
<rdf:RDF xmlns:rdf="http://www.w3.org/1999/02/22-rdf-syntax-ns#" xmlns:rdfs="http://www.w3.org/2000/01/rdf-schema#" xmlns:dc="http://purl.org/dc/elements/1.1/"><rdf:Description dc:publisher="Papirus Development Team" dc:rights="GNU General Public License v3.0"></rdf:Description></rdf:RDF>
</metadata>
<path transform="translate(4 4)" d="m12.211 1c-0.2125 0-0.4268 0.083047-0.5918 0.24805l-1.6289 1.6406 3.1191 3.1191 1.6406-1.6289c0.33-0.33 0.33-0.85164 0-1.1816l-1.9492-1.9492c-0.165-0.165-0.37734-0.24805-0.58984-0.24805zm-3.3418 3.0078-7.8789 7.8809v3.1191h3.1191l7.8809-7.8789-3.1211-3.1211z" fill="#fff"/>
</svg>
